;FLAVOR:RepRap
;TIME:4730
;Filament used: 4.01703m
;Layer height: 0.2
;Generated with Cura_SteamEngine 2.4.0
M190 S100
M104 S215
M109 S215
G21 ;metric values
G90 ;absolute positioning
M82 ;set extruder to absolute mode
M107 ;start with the fan off
G28 X0 Y0 ;move X/Y to min endstops
G28 Z0 ;move Z to min endstops
G1 Z15.0 F9000 ;move the platform down 15mm
G92 E0 ;zero the extruded length
G1 F200 E3 ;extrude 3mm of feed stock
G92 E0 ;zero the extruded length again
G1 F9000
M117 Printing...
;LAYER_COUNT:75
;LAYER:0
M107
G0 F2700 X91.75 Y87.703 Z0.2
;TYPE:SKIRT
G1 F900 X91.849 Y87.604 E0.00466
G1 X94.039 Y85.622 E0.1029
G1 X94.145 Y85.535 E0.10746
G1 X96.551 Y83.754 E0.20702
G1 X96.663 Y83.679 E0.2115
G1 X99.161 Y82.179 E0.30842
G1 X99.283 Y82.113 E0.31303
G1 X102.006 Y80.825 E0.41322
G1 X102.134 Y80.772 E0.41783
G1 X104.908 Y79.782 E0.51579
G1 X105.037 Y79.743 E0.52027
G1 X107.917 Y79.018 E0.61905
G1 X108.052 Y78.991 E0.62363
G1 X110.927 Y78.562 E0.72031
G1 X111.069 Y78.549 E0.72505
G1 X114.066 Y78.409 E0.82484
G1 X114.198 Y78.409 E0.82923
G1 X117.222 Y78.553 E0.92992
G1 X117.363 Y78.567 E0.93464
G1 X120.233 Y78.998 E1.03116
G1 X120.362 Y79.023 E1.03553
G1 X123.25 Y79.739 E1.1345
G1 X123.386 Y79.78 E1.13922
G1 X126.171 Y80.78 E1.23764
G1 X126.297 Y80.833 E1.24219
G1 X128.962 Y82.094 E1.34025
G1 X129.082 Y82.158 E1.34477
G1 X131.658 Y83.7 E1.44463
G1 X131.773 Y83.777 E1.44923
G1 X134.125 Y85.523 E1.54666
G1 X134.285 Y85.661 E1.55369
G1 X135.543 Y86.93 E1.61312
G1 X135.67 Y87.078 E1.6196
G1 X136.7 Y88.456 E1.67682
G1 X136.809 Y88.626 E1.68354
G1 X137.645 Y90.166 E1.74182
G1 X137.726 Y90.343 E1.7483
G1 X138.349 Y92.008 E1.80742
G1 X138.408 Y92.21 E1.81442
G1 X138.787 Y94.009 E1.87557
G1 X138.814 Y94.208 E1.88225
G1 X138.929 Y95.987 E1.94154
G1 X138.932 Y96.077 E1.94454
G1 X138.932 Y129.157 E3.04478
G1 X138.892 Y129.489 E3.05591
G1 X138.775 Y129.801 E3.06699
G1 X138.587 Y130.078 E3.07812
G1 X138.339 Y130.301 E3.08922
G1 X138.131 Y130.423 E3.09724
G1 X114.783 Y141.465 E3.95626
G1 X114.466 Y141.57 E3.96737
G1 X114.184 Y141.599 E3.9768
G1 X82.458 Y141.599 E5.03201
G1 X82.126 Y141.559 E5.04313
G1 X81.814 Y141.442 E5.05421
G1 X81.537 Y141.254 E5.06535
G1 X81.314 Y141.006 E5.07644
G1 X81.155 Y140.712 E5.08756
G1 X81.071 Y140.388 E5.09869
G1 X81.06 Y140.13 E5.10728
G1 X82.691 Y106.923 E6.21308
G1 X82.705 Y106.783 E6.21776
G1 X83.141 Y103.891 E6.31503
G1 X83.167 Y103.759 E6.31951
G1 X83.885 Y100.898 E6.41762
G1 X83.924 Y100.768 E6.42213
G1 X84.918 Y97.983 E6.52048
G1 X84.971 Y97.856 E6.52506
G1 X86.259 Y95.132 E6.62528
G1 X86.324 Y95.01 E6.62988
G1 X87.816 Y92.521 E6.72639
G1 X87.893 Y92.407 E6.73097
G1 X89.668 Y90.014 E6.83007
G1 X89.754 Y89.909 E6.83458
G1 X91.75 Y87.703 E6.93353
G0 F2700 X92.117 Y87.901
G1 F900 X94.307 Y85.919 E7.03177
G1 X94.383 Y85.856 E7.03505
G1 X96.789 Y84.075 E7.13462
G1 X96.869 Y84.022 E7.13781
G1 X99.367 Y82.522 E7.23472
G1 X99.454 Y82.475 E7.23801
G1 X102.177 Y81.187 E7.3382
G1 X102.269 Y81.149 E7.34151
G1 X105.043 Y80.159 E7.43947
G1 X105.135 Y80.131 E7.44267
G1 X108.015 Y79.406 E7.54145
G1 X108.111 Y79.387 E7.5447
G1 X110.986 Y78.958 E7.64138
G1 X111.087 Y78.948 E7.64476
G1 X114.084 Y78.808 E7.74455
G1 X114.179 Y78.808 E7.74771
G1 X117.203 Y78.952 E7.8484
G1 X117.304 Y78.962 E7.85178
G1 X120.174 Y79.393 E7.9483
G1 X120.266 Y79.411 E7.95142
G1 X123.154 Y80.127 E8.05038
G1 X123.251 Y80.157 E8.05376
G1 X126.036 Y81.157 E8.15218
G1 X126.126 Y81.194 E8.15542
G1 X128.791 Y82.455 E8.25348
G1 X128.877 Y82.501 E8.25672
G1 X131.453 Y84.043 E8.35658
G1 X131.535 Y84.098 E8.35986
G1 X133.887 Y85.844 E8.45729
G1 X134.001 Y85.943 E8.46231
G1 X135.259 Y87.212 E8.52174
G1 X135.35 Y87.317 E8.52636
G1 X136.38 Y88.695 E8.58358
G1 X136.458 Y88.817 E8.5884
G1 X137.294 Y90.357 E8.64668
G1 X137.352 Y90.484 E8.65132
G1 X137.975 Y92.149 E8.71045
G1 X138.017 Y92.293 E8.71544
G1 X138.396 Y94.092 E8.77659
G1 X138.415 Y94.233 E8.78132
G1 X138.53 Y96.012 E8.84062
G1 X138.532 Y96.077 E8.84278
G1 X138.532 Y129.157 E9.94302
G1 X138.492 Y129.436 E9.9524
G1 X138.376 Y129.693 E9.96178
G1 X138.193 Y129.908 E9.97117
G1 X137.96 Y130.061 E9.98044
G1 X114.612 Y141.103 E10.83946
G1 X114.342 Y141.186 E10.84886
G1 X114.184 Y141.199 E10.85413
G1 X82.458 Y141.199 E11.90934
G1 X82.179 Y141.159 E11.91871
G1 X81.922 Y141.043 E11.92809
G1 X81.707 Y140.86 E11.93748
G1 X81.553 Y140.624 E11.94686
G1 X81.47 Y140.354 E11.95625
G1 X81.459 Y140.15 E11.96305
G1 X83.09 Y106.943 E13.06885
G1 X83.1 Y106.843 E13.07219
G1 X83.536 Y103.951 E13.16946
G1 X83.555 Y103.857 E13.17265
G1 X84.273 Y100.996 E13.27076
G1 X84.301 Y100.903 E13.27399
G1 X85.295 Y98.118 E13.37234
G1 X85.333 Y98.027 E13.37562
G1 X86.621 Y95.303 E13.47584
G1 X86.667 Y95.216 E13.47912
G1 X88.159 Y92.727 E13.57563
G1 X88.214 Y92.645 E13.57892
G1 X89.989 Y90.252 E13.67802
G1 X90.05 Y90.177 E13.68123
G1 X92.046 Y87.971 E13.78018
G1 X92.117 Y87.901 E13.78349
G0 F2700 X92.385 Y88.197
G1 F900 X94.575 Y86.215 E13.88174
G1 X94.621 Y86.178 E13.8837
G1 X97.027 Y84.397 E13.98326
G1 X97.075 Y84.365 E13.98518
G1 X99.573 Y82.865 E14.08209
G1 X99.625 Y82.837 E14.08406
G1 X102.348 Y81.549 E14.18425
G1 X102.403 Y81.526 E14.18623
G1 X105.177 Y80.536 E14.28419
G1 X105.233 Y80.519 E14.28614
G1 X108.113 Y79.794 E14.38492
G1 X108.17 Y79.783 E14.38685
G1 X111.045 Y79.354 E14.48353
G1 X111.106 Y79.348 E14.48557
G1 X114.103 Y79.208 E14.58536
G1 X114.16 Y79.208 E14.58725
G1 X117.184 Y79.352 E14.68794
G1 X117.244 Y79.358 E14.68995
G1 X120.114 Y79.789 E14.78648
G1 X120.169 Y79.8 E14.78834
G1 X123.057 Y80.516 E14.88731
G1 X123.116 Y80.533 E14.88935
G1 X125.901 Y81.533 E14.98777
G1 X125.955 Y81.556 E14.98972
G1 X128.62 Y82.817 E15.08778
G1 X128.671 Y82.844 E15.0897
G1 X131.247 Y84.386 E15.18955
G1 X131.297 Y84.419 E15.19155
G1 X133.649 Y86.165 E15.28897
G1 X133.717 Y86.225 E15.29199
G1 X134.975 Y87.494 E15.35142
G1 X135.03 Y87.557 E15.3542
G1 X136.06 Y88.935 E15.41142
G1 X136.106 Y89.008 E15.41429
G1 X136.942 Y90.548 E15.47258
G1 X136.977 Y90.624 E15.47536
G1 X137.6 Y92.289 E15.53449
G1 X137.625 Y92.375 E15.53746
G1 X138.004 Y94.174 E15.59861
G1 X138.016 Y94.259 E15.60147
G1 X138.131 Y96.038 E15.66076
G1 X138.132 Y96.077 E15.66206
G1 X138.132 Y129.157 E16.7623
G1 X138.092 Y129.372 E16.76958
G1 X137.979 Y129.558 E16.77682
G1 X137.789 Y129.699 E16.78469
G1 X114.441 Y140.741 E17.64371
G1 X114.184 Y140.799 E17.65247
G1 X82.458 Y140.799 E18.70768
G1 X82.243 Y140.759 E18.71496
G1 X82.057 Y140.646 E18.7222
G1 X81.924 Y140.473 E18.72945
G1 X81.859 Y140.17 E18.73976
G1 X83.49 Y106.963 E19.84556
G1 X83.496 Y106.903 E19.84757
G1 X83.932 Y104.011 E19.94484
G1 X83.943 Y103.954 E19.94677
G1 X84.661 Y101.093 E20.04488
G1 X84.678 Y101.037 E20.04683
G1 X85.672 Y98.252 E20.14518
G1 X85.695 Y98.198 E20.14713
G1 X86.983 Y95.474 E20.24735
G1 X87.01 Y95.422 E20.2493
G1 X88.502 Y92.933 E20.34582
G1 X88.535 Y92.884 E20.34778
G1 X90.31 Y90.491 E20.44688
G1 X90.347 Y90.445 E20.44884
G1 X92.343 Y88.239 E20.54779
G1 X92.385 Y88.197 E20.54977
G0 F2700 X92.654 Y88.494
G1 F900 X94.844 Y86.512 E20.64801
G1 X94.859 Y86.499 E20.64867
G1 X97.265 Y84.718 E20.74823
G1 X97.281 Y84.708 E20.74886
G1 X99.779 Y83.208 E20.84577
G1 X99.796 Y83.198 E20.84643
G1 X102.519 Y81.91 E20.94661
G1 X102.538 Y81.903 E20.94729
G1 X105.312 Y80.913 E21.04525
G1 X105.33 Y80.907 E21.04588
G1 X108.21 Y80.182 E21.14466
G1 X108.229 Y80.178 E21.1453
G1 X111.104 Y79.749 E21.24199
G1 X111.125 Y79.747 E21.24269
G1 X114.122 Y79.607 E21.34248
G1 X114.141 Y79.607 E21.34311
G1 X117.165 Y79.751 E21.4438
G1 X117.185 Y79.753 E21.44447
G1 X120.055 Y80.184 E21.541
G1 X120.073 Y80.188 E21.54161
G1 X122.961 Y80.904 E21.64057
G1 X122.981 Y80.91 E21.64127
G1 X125.766 Y81.91 E21.73969
G1 X125.784 Y81.917 E21.74033
G1 X128.449 Y83.178 E21.83839
G1 X128.466 Y83.187 E21.83903
G1 X131.042 Y84.729 E21.93889
G1 X131.058 Y84.74 E21.93953
G1 X133.41 Y86.486 E22.03696
G1 X133.433 Y86.506 E22.03797
G1 X134.691 Y87.775 E22.0974
G1 X134.709 Y87.796 E22.09832
G1 X135.739 Y89.174 E22.15554
G1 X135.755 Y89.199 E22.15653
G1 X136.591 Y90.739 E22.21481
G1 X136.602 Y90.764 E22.21572
G1 X137.225 Y92.429 E22.27485
G1 X137.234 Y92.458 E22.27586
G1 X137.613 Y94.257 E22.33701
G1 X137.617 Y94.285 E22.33795
G1 X137.732 Y96.064 E22.39724
G1 X137.732 Y129.157 E23.49792
G1 X137.693 Y129.276 E23.50208
G1 X137.618 Y129.338 E23.50532
G1 X114.27 Y140.38 E24.36434
G1 X114.184 Y140.399 E24.36727
G1 X82.458 Y140.399 E25.42248
G1 X82.339 Y140.36 E25.42665
G1 X82.267 Y140.258 E25.4308
G1 X82.258 Y140.189 E25.43312
G1 X83.889 Y106.982 E26.53892
G1 X83.891 Y106.962 E26.53959
G1 X84.327 Y104.07 E26.63686
G1 X84.331 Y104.051 E26.63751
G1 X85.049 Y101.19 E26.73561
G1 X85.055 Y101.172 E26.73625
G1 X86.049 Y98.387 E26.8346
G1 X86.056 Y98.369 E26.83524
G1 X87.344 Y95.645 E26.93546
G1 X87.353 Y95.627 E26.93613
G1 X88.845 Y93.138 E27.03265
G1 X88.856 Y93.122 E27.03329
G1 X90.631 Y90.729 E27.13239
G1 X90.644 Y90.714 E27.13305
G1 X92.64 Y88.508 E27.232
G1 X92.654 Y88.494 E27.23266
G0 F2700 X96.388 Y92.4
G1 F900 X94.55 Y94.517 E27.3259
G1 X93.003 Y96.859 E27.41926
G1 X91.774 Y99.38 E27.51254
G1 X90.877 Y102.07 E27.60685
G1 X90.377 Y104.587 E27.6922
G1 X90.179 Y107.395 E27.78583
G1 X90.348 Y110.205 E27.87946
G1 X90.937 Y113.157 E27.97958
G1 X91.852 Y115.81 E28.07292
G1 X93.102 Y118.317 E28.16609
G1 X94.675 Y120.647 E28.2596
G1 X96.54 Y122.753 E28.35316
G1 X98.658 Y124.592 E28.44645
G1 X100.997 Y126.137 E28.53969
G1 X103.516 Y127.366 E28.63291
G1 X106.212 Y128.265 E28.72743
G1 X108.729 Y128.764 E28.81278
G1 X111.538 Y128.962 E28.90644
G1 X114.347 Y128.792 E29.00004
G1 X117.3 Y128.204 E29.10018
G1 X119.95 Y127.29 E29.19342
G1 X122.459 Y126.039 E29.28666
G1 X124.79 Y124.465 E29.38021
G1 X126.894 Y122.6 E29.47373
G1 X128.732 Y120.483 E29.56697
G1 X130.281 Y118.141 E29.66036
G1 X131.511 Y115.618 E29.75372
G1 X132.407 Y112.929 E29.84799
G1 X132.906 Y110.413 E29.9333
G1 X133.103 Y107.602 E30.02703
G1 X132.935 Y104.794 E30.12059
G1 X132.347 Y101.841 E30.22073
G1 X131.432 Y99.189 E30.31404
G1 X130.181 Y96.683 E30.4072
G1 X128.607 Y94.352 E30.50075
G1 X126.742 Y92.246 E30.59431
G1 X124.624 Y90.409 E30.68756
G1 X122.283 Y88.86 E30.78093
G1 X119.76 Y87.63 E30.87428
G1 X117.072 Y86.734 E30.96852
G1 X114.547 Y86.235 E31.05413
G1 X111.752 Y86.036 E31.14733
G1 X108.728 Y86.235 E31.24812
G1 X106.207 Y86.738 E31.33363
G1 X103.334 Y87.709 E31.43449
G1 X100.824 Y88.961 E31.52778
G1 X98.493 Y90.535 E31.62133
G1 X96.388 Y92.4 E31.71487
G0 F2700 X96.675 Y92.681
G1 F900 X94.872 Y94.755 E31.80628
G1 X93.347 Y97.065 E31.89834
G1 X92.146 Y99.529 E31.98951
G1 X91.267 Y102.165 E32.08193
G1 X90.774 Y104.645 E32.16603
G1 X90.58 Y107.401 E32.25792
G1 X90.746 Y110.154 E32.34965
G1 X91.323 Y113.05 E32.44787
G1 X92.221 Y115.654 E32.53948
G1 X93.45 Y118.119 E32.63109
G1 X94.992 Y120.402 E32.72272
G1 X96.821 Y122.467 E32.81447
G1 X98.896 Y124.27 E32.9059
G1 X101.203 Y125.794 E32.99786
G1 X103.665 Y126.994 E33.08896
G1 X106.307 Y127.875 E33.18159
G1 X108.788 Y128.367 E33.26571
G1 X111.542 Y128.561 E33.35754
G1 X114.296 Y128.394 E33.4493
G1 X117.195 Y127.817 E33.54762
G1 X119.791 Y126.922 E33.63895
G1 X122.26 Y125.691 E33.73071
G1 X124.545 Y124.148 E33.82241
G1 X126.608 Y122.32 E33.91409
G1 X128.414 Y120.24 E34.00571
G1 X129.935 Y117.941 E34.09739
G1 X131.139 Y115.469 E34.18885
G1 X132.017 Y112.834 E34.28122
G1 X132.509 Y110.354 E34.36532
G1 X132.702 Y107.598 E34.45721
G1 X132.537 Y104.845 E34.54894
G1 X131.961 Y101.949 E34.64714
G1 X131.063 Y99.345 E34.73876
G1 X129.833 Y96.882 E34.83032
G1 X128.29 Y94.597 E34.92203
G1 X126.462 Y92.532 E35.01376
G1 X124.381 Y90.727 E35.10538
G1 X122.083 Y89.206 E35.19704
G1 X119.611 Y88.002 E35.28849
G1 X116.976 Y87.123 E35.38088
G1 X114.49 Y86.632 E35.46516
G1 X111.75 Y86.437 E35.55652
G1 X108.779 Y86.633 E35.65555
G1 X106.314 Y87.124 E35.73915
G1 X103.49 Y88.078 E35.83829
G1 X101.023 Y89.309 E35.92999
G1 X98.738 Y90.852 E36.0217
G1 X96.675 Y92.681 E36.1134
G0 F2700 X97.001 Y92.916
G1 F900 X97.056 Y92.861 E36.11598
G1 X99.029 Y91.128 E36.20332
G1 X99.092 Y91.08 E36.20596
G1 X101.278 Y89.62 E36.29339
G1 X101.346 Y89.581 E36.296
G1 X103.697 Y88.421 E36.38319
G1 X103.77 Y88.391 E36.38582
G1 X106.254 Y87.551 E36.47303
G1 X106.328 Y87.531 E36.47558
G1 X108.901 Y87.017 E36.56285
G1 X108.98 Y87.006 E36.5655
G1 X111.602 Y86.834 E36.6529
G1 X111.68 Y86.834 E36.65549
G1 X114.303 Y87.007 E36.74292
G1 X114.381 Y87.018 E36.74554
G1 X116.956 Y87.53 E36.83287
G1 X117.032 Y87.55 E36.83548
G1 X119.514 Y88.391 E36.92264
G1 X119.586 Y88.421 E36.92524
G1 X121.937 Y89.581 E37.01243
G1 X122.006 Y89.62 E37.01507
G1 X124.191 Y91.081 E37.10249
G1 X124.252 Y91.129 E37.10507
G1 X126.225 Y92.858 E37.19233
G1 X126.281 Y92.913 E37.19494
G1 X128.013 Y94.887 E37.28228
G1 X128.061 Y94.95 E37.28492
G1 X129.521 Y97.135 E37.37232
G1 X129.56 Y97.202 E37.3749
G1 X130.72 Y99.551 E37.46203
G1 X130.75 Y99.625 E37.46469
G1 X131.592 Y102.111 E37.55199
G1 X131.612 Y102.186 E37.55457
G1 X132.125 Y104.76 E37.64186
G1 X132.136 Y104.838 E37.64448
G1 X132.306 Y107.46 E37.73188
G1 X132.306 Y107.538 E37.73447
G1 X132.135 Y110.161 E37.8219
G1 X132.124 Y110.239 E37.82452
G1 X131.611 Y112.813 E37.91181
G1 X131.591 Y112.888 E37.91439
G1 X130.75 Y115.371 E38.00159
G1 X130.72 Y115.445 E38.00424
G1 X129.56 Y117.795 E38.09141
G1 X129.521 Y117.862 E38.09399
G1 X128.061 Y120.048 E38.18142
G1 X128.013 Y120.111 E38.18405
G1 X126.282 Y122.084 E38.27135
G1 X126.227 Y122.139 E38.27394
G1 X124.254 Y123.872 E38.36128
G1 X124.191 Y123.92 E38.36391
G1 X122.005 Y125.38 E38.45135
G1 X121.937 Y125.419 E38.45395
G1 X119.586 Y126.579 E38.54115
G1 X119.513 Y126.609 E38.54377
G1 X117.031 Y127.449 E38.63092
G1 X116.956 Y127.469 E38.63351
G1 X114.381 Y127.982 E38.72083
G1 X114.303 Y127.993 E38.72345
G1 X111.68 Y128.165 E38.81088
G1 X111.602 Y128.165 E38.81348
G1 X108.981 Y127.993 E38.90084
G1 X108.903 Y127.982 E38.90346
G1 X106.328 Y127.469 E38.99079
G1 X106.253 Y127.449 E38.99337
G1 X103.773 Y126.61 E39.08045
G1 X103.699 Y126.58 E39.0831
G1 X101.343 Y125.416 E39.1705
G1 X101.276 Y125.377 E39.17308
G1 X99.092 Y123.92 E39.2604
G1 X99.029 Y123.872 E39.26304
G1 X97.055 Y122.14 E39.35038
G1 X97 Y122.085 E39.35297
G1 X95.269 Y120.112 E39.44027
G1 X95.221 Y120.049 E39.4429
G1 X93.762 Y117.863 E39.53032
G1 X93.723 Y117.796 E39.53289
G1 X92.563 Y115.446 E39.62006
G1 X92.533 Y115.372 E39.62272
G1 X91.692 Y112.889 E39.70991
G1 X91.672 Y112.814 E39.71249
G1 X91.158 Y110.24 E39.79979
G1 X91.147 Y110.162 E39.80241
G1 X90.976 Y107.54 E39.88981
G1 X90.976 Y107.462 E39.8924
G1 X91.148 Y104.839 E39.97983
G1 X91.159 Y104.761 E39.98245
G1 X91.673 Y102.187 E40.06975
G1 X91.693 Y102.112 E40.07233
G1 X92.534 Y99.629 E40.15953
G1 X92.564 Y99.555 E40.16218
G1 X93.724 Y97.205 E40.24935
G1 X93.763 Y97.138 E40.25192
G1 X95.223 Y94.951 E40.33938
G1 X95.271 Y94.888 E40.34202
G1 X97.001 Y92.916 E40.42927
G0 F2700 X97.32 Y93.162
G1 F900 X99.293 Y91.429 E40.51661
G1 X99.314 Y91.413 E40.51749
G1 X101.5 Y89.953 E40.60492
G1 X101.523 Y89.94 E40.6058
G1 X103.874 Y88.78 E40.69299
G1 X103.898 Y88.77 E40.69386
G1 X106.382 Y87.93 E40.78107
G1 X106.407 Y87.923 E40.78194
G1 X108.98 Y87.409 E40.86921
G1 X109.006 Y87.405 E40.87008
G1 X111.628 Y87.233 E40.95748
G1 X111.654 Y87.233 E40.95834
G1 X114.277 Y87.406 E41.04577
G1 X114.303 Y87.41 E41.04665
G1 X116.878 Y87.922 E41.13397
G1 X116.903 Y87.929 E41.13483
G1 X119.385 Y88.77 E41.22199
G1 X119.409 Y88.78 E41.22286
G1 X121.76 Y89.94 E41.31005
G1 X121.783 Y89.953 E41.31093
G1 X123.968 Y91.414 E41.39836
G1 X123.989 Y91.43 E41.39923
G1 X125.962 Y93.159 E41.48649
G1 X125.98 Y93.177 E41.48733
G1 X127.712 Y95.151 E41.57468
G1 X127.728 Y95.172 E41.57556
G1 X129.188 Y97.357 E41.66296
G1 X129.201 Y97.379 E41.66381
G1 X130.361 Y99.728 E41.75095
G1 X130.371 Y99.753 E41.75184
G1 X131.213 Y102.239 E41.83914
G1 X131.22 Y102.264 E41.84
G1 X131.733 Y104.838 E41.9273
G1 X131.737 Y104.864 E41.92817
G1 X131.907 Y107.486 E42.01557
G1 X131.907 Y107.512 E42.01643
G1 X131.736 Y110.135 E42.10386
G1 X131.732 Y110.161 E42.10473
G1 X131.219 Y112.735 E42.19203
G1 X131.212 Y112.76 E42.19289
G1 X130.371 Y115.243 E42.28008
