;FLAVOR:RepRap
;TIME:19964
;Filament used: 25.4436m
;Layer height: 0.3
;Generated with Cura_SteamEngine 2.4.0
M190 S100
M104 S225
M109 S225
G21 ;metric values
G90 ;absolute positioning
M82 ;set extruder to absolute mode
M107 ;start with the fan off
G28 X0 Y0 ;move X/Y to min endstops
G28 Z0 ;move Z to min endstops
G1 Z15.0 F9000 ;move the platform down 15mm
G92 E0 ;zero the extruded length
G1 F200 E3 ;extrude 3mm of feed stock
G92 E0 ;zero the extruded length again
G1 F9000
M117 Printing...
;LAYER_COUNT:9
;LAYER:0
M107
G0 F1800 X34.01 Y30.26 Z0.2
;TYPE:SKIRT
G1 F1200 X44.01 Y20.26 E0.47037
G1 X44.273 Y20.054 E0.48148
G1 X44.577 Y19.915 E0.4926
G1 X45 Y19.85 E0.50683
G1 X175 Y19.85 E4.83065
G1 X175.332 Y19.89 E4.84177
G1 X175.644 Y20.007 E4.85286
G1 X175.99 Y20.26 E4.86711
G1 X185.99 Y30.26 E5.33748
G1 X186.196 Y30.523 E5.34859
G1 X186.335 Y30.827 E5.35971
G1 X186.4 Y31.25 E5.37394
G1 X186.4 Y186.25 E10.52927
G1 X186.36 Y186.582 E10.54039
G1 X186.243 Y186.894 E10.55147
G1 X185.99 Y187.24 E10.56573
G1 X175.99 Y197.24 E11.0361
G1 X175.727 Y197.446 E11.04721
G1 X175.423 Y197.585 E11.05833
G1 X175 Y197.65 E11.07256
G1 X146.4 Y197.65 E12.0238
G1 X146.4 Y198.75 E12.06039
G1 X146.36 Y199.082 E12.07151
G1 X146.243 Y199.394 E12.08259
G1 X146.055 Y199.671 E12.09373
G1 X145.807 Y199.894 E12.10482
G1 X145.513 Y200.053 E12.11593
G1 X145.189 Y200.137 E12.12707
G1 X145 Y200.15 E12.13337
G1 X140 Y200.15 E12.29967
G1 X139.668 Y200.11 E12.31079
G1 X139.356 Y199.993 E12.32187
G1 X139.079 Y199.805 E12.33301
G1 X138.856 Y199.557 E12.3441
G1 X138.697 Y199.263 E12.35522
G1 X138.613 Y198.939 E12.36635
G1 X138.6 Y198.75 E12.37265
G1 X138.6 Y197.65 E12.40924
G1 X45 Y197.65 E15.52239
G1 X44.668 Y197.61 E15.53351
G1 X44.356 Y197.493 E15.54459
G1 X44.01 Y197.24 E15.55885
G1 X34.01 Y187.24 E16.02922
G1 X33.804 Y186.977 E16.04033
G1 X33.665 Y186.673 E16.05145
G1 X33.6 Y186.25 E16.06568
G1 X33.6 Y31.25 E21.221
G1 X33.64 Y30.918 E21.23212
G1 X33.757 Y30.606 E21.24321
G1 X34.01 Y30.26 E21.25746
G0 F1800 X34.293 Y30.543
G1 F1200 X44.293 Y20.543 E21.72783
G1 X44.519 Y20.374 E21.73722
G1 X44.783 Y20.274 E21.74661
G1 X45 Y20.25 E21.75387
G1 X175 Y20.25 E26.07769
G1 X175.279 Y20.29 E26.08706
G1 X175.536 Y20.406 E26.09644
G1 X175.707 Y20.543 E26.10373
G1 X185.707 Y30.543 E26.5741
G1 X185.876 Y30.769 E26.58348
G1 X185.976 Y31.033 E26.59287
G1 X186 Y31.25 E26.60013
G1 X186 Y186.25 E31.75545
G1 X185.96 Y186.529 E31.76483
G1 X185.844 Y186.786 E31.77421
G1 X185.707 Y186.957 E31.7815
G1 X175.707 Y196.957 E32.25186
G1 X175.481 Y197.126 E32.26125
G1 X175.217 Y197.226 E32.27064
G1 X175 Y197.25 E32.2779
G1 X146 Y197.25 E33.24245
G1 X146 Y198.75 E33.29234
G1 X145.96 Y199.029 E33.30171
G1 X145.844 Y199.286 E33.31109
G1 X145.661 Y199.501 E33.32048
G1 X145.425 Y199.655 E33.32985
G1 X145.155 Y199.738 E33.33925
G1 X145 Y199.75 E33.34442
G1 X140 Y199.75 E33.51072
G1 X139.721 Y199.71 E33.52009
G1 X139.464 Y199.594 E33.52947
G1 X139.249 Y199.411 E33.53886
G1 X139.095 Y199.175 E33.54823
G1 X139.012 Y198.905 E33.55763
G1 X139 Y198.75 E33.5628
G1 X139 Y197.25 E33.61269
G1 X45 Y197.25 E36.73914
G1 X44.721 Y197.21 E36.74852
G1 X44.464 Y197.094 E36.7579
G1 X44.293 Y196.957 E36.76518
G1 X34.293 Y186.957 E37.23555
G1 X34.124 Y186.731 E37.24494
G1 X34.024 Y186.467 E37.25433
G1 X34 Y186.25 E37.26159
G1 X34 Y31.25 E42.41691
G1 X34.04 Y30.971 E42.42628
G1 X34.156 Y30.714 E42.43566
G1 X34.293 Y30.543 E42.44295
G0 F1800 X34.576 Y30.826
G1 F1200 X44.576 Y20.826 E42.91332
G1 X44.755 Y20.702 E42.92056
G1 X45 Y20.65 E42.92889
G1 X175 Y20.65 E47.25271
G1 X175.215 Y20.69 E47.25998
G1 X175.424 Y20.826 E47.26828
G1 X185.424 Y30.826 E47.73865
G1 X185.548 Y31.005 E47.74589
G1 X185.6 Y31.25 E47.75422
G1 X185.6 Y186.25 E52.90954
G1 X185.56 Y186.465 E52.91681
G1 X185.424 Y186.674 E52.92511
G1 X175.424 Y196.674 E53.39548
G1 X175.245 Y196.798 E53.40272
G1 X175 Y196.85 E53.41105
G1 X145.6 Y196.85 E54.3889
G1 X145.6 Y198.75 E54.45209
G1 X145.56 Y198.965 E54.45937
G1 X145.447 Y199.151 E54.4666
G1 X145.274 Y199.284 E54.47386
G1 X145 Y199.35 E54.48324
G1 X140 Y199.35 E54.64954
G1 X139.785 Y199.31 E54.65681
G1 X139.599 Y199.197 E54.66405
G1 X139.466 Y199.024 E54.67131
G1 X139.4 Y198.75 E54.68068
G1 X139.4 Y196.85 E54.74387
G1 X45 Y196.85 E57.88363
G1 X44.785 Y196.81 E57.89091
G1 X44.576 Y196.674 E57.8992
G1 X34.576 Y186.674 E58.36957
G1 X34.452 Y186.495 E58.37681
G1 X34.4 Y186.25 E58.38514
G1 X34.4 Y31.25 E63.54046
G1 X34.44 Y31.035 E63.54774
G1 X34.576 Y30.826 E63.55603
G0 F1800 X34.859 Y31.109
G1 F1200 X44.859 Y21.109 E64.0264
G1 X45 Y21.05 E64.03148
G1 X175 Y21.05 E68.3553
G1 X175.141 Y21.109 E68.36038
G1 X185.141 Y31.109 E68.83075
G1 X185.2 Y31.25 E68.83584
G1 X185.2 Y186.25 E73.99116
G1 X185.141 Y186.391 E73.99624
G1 X175.141 Y196.391 E74.46661
G1 X175 Y196.45 E74.47169
G1 X145.2 Y196.45 E75.46285
G1 X145.2 Y198.75 E75.53934
G1 X145.161 Y198.869 E75.54351
G1 X145 Y198.95 E75.5495
G1 X140 Y198.95 E75.7158
G1 X139.881 Y198.911 E75.71997
G1 X139.8 Y198.75 E75.72596
G1 X139.8 Y196.45 E75.80246
G1 X45 Y196.45 E78.95552
G1 X44.859 Y196.391 E78.96061
G1 X34.859 Y186.391 E79.43098
G1 X34.8 Y186.25 E79.43606
G1 X34.8 Y31.25 E84.59138
G1 X34.859 Y31.109 E84.59646
G0 F1800 X36.4 Y31.83
;TYPE:WALL-INNER
G1 F1200 X45.58 Y22.65 E85.02826
G1 X174.42 Y22.65 E89.3135
G1 X183.6 Y31.83 E89.7453
G1 X183.6 Y185.67 E94.86204
G1 X174.42 Y194.85 E95.29384
G1 X143.6 Y194.85 E96.31891
G1 X143.6 Y197.35 E96.40206
G1 X141.4 Y197.35 E96.47524
G1 X141.4 Y194.85 E96.55839
G1 X45.58 Y194.85 E99.74537
G1 X36.4 Y185.67 E100.17717
G1 X36.4 Y31.83 E105.29391
G0 F1800 X34.939 Y30.371
G0 X34.948 Y30.371
G0 X35.028 Y30.379
G0 X43.588 Y31.241
G0 X43.667 Y31.249
G0 X43.668 Y31.25
G0 X41.593 Y31.25
G1 F1200 X41.66 Y31.917 E105.31621
G1 X41.854 Y32.555 E105.33839
G1 X42.169 Y33.143 E105.36057
G1 X42.592 Y33.659 E105.38277
G1 X43.108 Y34.082 E105.40496
G1 X43.696 Y34.397 E105.42714
G1 X44.337 Y34.591 E105.44942
G1 X45 Y34.657 E105.47158
G1 X45.679 Y34.589 E105.49428
G1 X46.317 Y34.392 E105.51648
G1 X46.902 Y34.077 E105.53858
G1 X47.409 Y33.659 E105.56044
G1 X47.832 Y33.143 E105.58263
G1 X48.147 Y32.555 E105.60482
G1 X48.341 Y31.914 E105.62709
G1 X48.407 Y31.25 E105.64928
G1 X48.341 Y30.587 E105.67144
G1 X48.147 Y29.946 E105.69372
G1 X47.832 Y29.358 E105.71591
G1 X47.409 Y28.842 E105.7381
G1 X46.893 Y28.419 E105.76029
G1 X46.305 Y28.104 E105.78248
G1 X45.667 Y27.91 E105.80466
G1 X45 Y27.843 E105.82695
G1 X44.334 Y27.91 E105.84921
G1 X43.696 Y28.104 E105.87139
G1 X43.108 Y28.419 E105.89358
G1 X42.592 Y28.842 E105.91577
G1 X42.169 Y29.358 E105.93796
G1 X41.854 Y29.946 E105.96015
G1 X41.66 Y30.584 E105.98233
G1 X41.593 Y31.25 E106.00459
G0 F1800 X43.668 Y31.25
G0 X45.328 Y32.542
G0 X45.392 Y32.591
G0 X59.996 Y43.949
G0 X60.059 Y43.998
G0 X60.061 Y43.998
G0 X58.294 Y42.922
G1 F1200 X57.889 Y43.698 E106.03371
G1 X57.598 Y44.524 E106.06283
G1 X57.42 Y45.378 E106.09185
G1 X57.36 Y46.25 E106.12092
G1 X57.42 Y47.123 E106.15003
G1 X57.598 Y47.977 E106.17904
G1 X57.889 Y48.803 E106.20817
G1 X58.294 Y49.579 E106.23728
G1 X58.797 Y50.292 E106.2663
G1 X59.392 Y50.931 E106.29534
G1 X60.071 Y51.483 E106.32445
G1 X60.819 Y51.936 E106.35353
G1 X61.619 Y52.285 E106.38256
G1 X62.459 Y52.521 E106.41158
G1 X63.327 Y52.639 E106.44072
G1 X64.2 Y52.639 E106.46976
G1 X65.068 Y52.521 E106.49889
G1 X65.908 Y52.285 E106.52791
G1 X66.708 Y51.936 E106.55694
G1 X67.456 Y51.483 E106.58603
G1 X68.135 Y50.931 E106.61513
G1 X68.721 Y50.302 E106.64372
G1 X69.223 Y49.592 E106.67264
G1 X69.627 Y48.819 E106.70165
G1 X69.923 Y47.995 E106.73078
G1 X70.103 Y47.138 E106.7599
G1 X70.164 Y46.272 E106.78878
G1 X70.112 Y45.4 E106.81783
G1 X69.933 Y44.541 E106.84701
G1 X69.643 Y43.715 E106.87613
G1 X69.243 Y42.941 E106.90511
G1 X68.743 Y42.225 E106.93416
G1 X68.121 Y41.558 E106.96449
G1 X67.44 Y41.011 E106.99354
G1 X66.695 Y40.56 E107.02251
G1 X65.891 Y40.212 E107.05165
G1 X65.047 Y39.978 E107.08078
G1 X64.182 Y39.862 E107.1098
G1 X63.307 Y39.864 E107.13891
G1 X62.446 Y39.987 E107.16783
G1 X61.603 Y40.221 E107.19693
G1 X60.8 Y40.575 E107.22612
G1 X60.057 Y41.03 E107.2551
G1 X59.392 Y41.57 E107.28359
G1 X58.797 Y42.209 E107.31263
G1 X58.294 Y42.922 E107.34165
G0 F1800 X60.061 Y43.998
G0 X67.807 Y44.705
G0 X67.887 Y44.712
G0 X78.127 Y45.648
G0 X78.207 Y45.656
G0 X78.207 Y45.657
G0 X76.157 Y45.378
G1 F1200 X76.097 Y46.25 E107.37072
G1 X76.157 Y47.123 E107.39983
G1 X76.335 Y47.977 E107.42884
G1 X76.626 Y48.803 E107.45797
G1 X77.031 Y49.579 E107.48708
G1 X77.534 Y50.292 E107.51611
G1 X78.129 Y50.931 E107.54515
G1 X78.808 Y51.483 E107.57425
G1 X79.556 Y51.936 E107.60334
G1 X80.356 Y52.285 E107.63237
G1 X81.196 Y52.521 E107.66139
G1 X82.064 Y52.639 E107.69052
G1 X82.937 Y52.639 E107.71956
G1 X83.805 Y52.521 E107.74869
G1 X84.645 Y52.285 E107.77771
G1 X85.445 Y51.936 E107.80674
G1 X86.193 Y51.483 E107.83583
G1 X86.872 Y50.931 E107.86493
G1 X87.467 Y50.292 E107.89397
G1 X87.97 Y49.579 E107.923
G1 X88.375 Y48.803 E107.95211
G1 X88.666 Y47.977 E107.98124
G1 X88.844 Y47.12 E108.01035
G1 X88.902 Y46.267 E108.03879
G1 X88.846 Y45.399 E108.06772
G1 X88.67 Y44.542 E108.09681
G1 X88.381 Y43.716 E108.12592
G1 X87.981 Y42.941 E108.15493
G1 X87.478 Y42.223 E108.18409
G1 X86.858 Y41.558 E108.21432
G1 X86.177 Y41.011 E108.24338
G1 X85.432 Y40.56 E108.27234
G1 X84.628 Y40.212 E108.30148
G1 X83.784 Y39.978 E108.33061
G1 X82.919 Y39.862 E108.35964
G1 X82.044 Y39.864 E108.38874
G1 X81.183 Y39.987 E108.41767
G1 X80.34 Y40.221 E108.44677
G1 X79.537 Y40.575 E108.47596
G1 X78.794 Y41.03 E108.50493
G1 X78.129 Y41.57 E108.53343
G1 X77.534 Y42.209 E108.56247
G1 X77.031 Y42.922 E108.59149
G1 X76.626 Y43.698 E108.6206
G1 X76.335 Y44.524 E108.64973
G1 X76.157 Y45.378 E108.67874
G0 F1800 X78.207 Y45.657
G0 X86.81 Y45.929
G0 X86.89 Y45.931
G0 X96.837 Y46.246
G0 X96.917 Y46.249
G0 X96.917 Y46.25
G0 X94.847 Y46.25
G1 F1200 X94.907 Y47.123 E108.70785
G1 X95.085 Y47.977 E108.73686
G1 X95.376 Y48.803 E108.76599
G1 X95.781 Y49.579 E108.7951
G1 X96.284 Y50.292 E108.82413
G1 X96.879 Y50.931 E108.85317
G1 X97.558 Y51.483 E108.88227
G1 X98.306 Y51.936 E108.91136
G1 X99.106 Y52.285 E108.94039
G1 X99.946 Y52.521 E108.96941
G1 X100.814 Y52.639 E108.99854
G1 X101.687 Y52.639 E109.02758
G1 X102.555 Y52.521 E109.05671
G1 X103.395 Y52.285 E109.08573
G1 X104.195 Y51.936 E109.11476
G1 X104.943 Y51.483 E109.14385
G1 X105.622 Y50.931 E109.17295
G1 X106.208 Y50.302 E109.20155
G1 X106.711 Y49.592 E109.23049
G1 X107.115 Y48.819 E109.2595
G1 X107.41 Y47.994 E109.28864
G1 X107.59 Y47.141 E109.31763
G1 X107.651 Y46.272 E109.34661
G1 X107.599 Y45.4 E109.37566
G1 X107.42 Y44.542 E109.40481
G1 X107.131 Y43.716 E109.43392
G1 X106.731 Y42.941 E109.46293
G1 X106.228 Y42.223 E109.49208
G1 X105.608 Y41.558 E109.52232
G1 X104.927 Y41.011 E109.55138
G1 X104.182 Y40.56 E109.58034
G1 X103.378 Y40.212 E109.60948
G1 X102.534 Y39.978 E109.63861
G1 X101.669 Y39.862 E109.66764
G1 X100.794 Y39.864 E109.69674
G1 X99.933 Y39.987 E109.72567
G1 X99.09 Y40.221 E109.75477
G1 X98.287 Y40.575 E109.78396
G1 X97.544 Y41.03 E109.81293
G1 X96.879 Y41.57 E109.84143
G1 X96.284 Y42.209 E109.87047
G1 X95.781 Y42.922 E109.89949
G1 X95.376 Y43.698 E109.9286
G1 X95.085 Y44.524 E109.95773
G1 X94.907 Y45.378 E109.98674
G1 X94.847 Y46.25 E110.01581
G0 F1800 X96.917 Y46.25
G0 X100.621 Y41.959
G0 X100.673 Y41.898
G0 X109.005 Y32.252
G0 X109.057 Y32.192
G0 X109.058 Y32.193
G0 X107.592 Y33.659
G1 F1200 X108.108 Y34.082 E110.03801
G1 X108.696 Y34.397 E110.06019
G1 X109.337 Y34.591 E110.08247
G1 X110 Y34.657 E110.10463
G1 X110.663 Y34.591 E110.12679
G1 X111.304 Y34.397 E110.14906
G1 X111.892 Y34.082 E110.17125
G1 X112.408 Y33.659 E110.19344
G1 X112.831 Y33.143 E110.21563
G1 X113.146 Y32.555 E110.23782
G1 X113.34 Y31.917 E110.26
G1 X113.406 Y31.263 E110.28186
G1 X113.345 Y30.6 E110.30401
G1 X113.152 Y29.958 E110.3263
G1 X112.839 Y29.367 E110.34855
G1 X112.402 Y28.834 E110.37147
G1 X111.881 Y28.411 E110.39379
G1 X111.289 Y28.099 E110.41605
G1 X110.652 Y27.909 E110.43816
G1 X109.988 Y27.844 E110.46035
G1 X109.321 Y27.912 E110.48265
G1 X108.682 Y28.109 E110.50489
G1 X108.099 Y28.424 E110.52693
G1 X107.592 Y28.842 E110.54878
G1 X107.169 Y29.358 E110.57098
G1 X106.854 Y29.946 E110.59316
G1 X106.66 Y30.584 E110.61534
G1 X106.593 Y31.25 E110.6376
G1 X106.66 Y31.917 E110.6599
G1 X106.854 Y32.555 E110.68208
G1 X107.169 Y33.143 E110.70427
G1 X107.592 Y33.659 E110.72646
G0 F1800 X109.058 Y32.193
G0 X109.125 Y32.286
G0 X109.172 Y32.35
G0 X116.996 Y43.014
G0 X117.043 Y43.079
G0 X117.045 Y43.08
G0 X115.628 Y41.57
G1 F1200 X115.033 Y42.209 E110.7555
G1 X114.53 Y42.922 E110.78452
G1 X114.125 Y43.698 E110.81363
G1 X113.834 Y44.524 E110.84276
G1 X113.656 Y45.381 E110.87187
G1 X113.597 Y46.25 E110.90084
G1 X113.656 Y47.12 E110.92985
G1 X113.834 Y47.977 E110.95896
G1 X114.125 Y48.803 E110.98809
G1 X114.53 Y49.579 E111.0172
G1 X115.033 Y50.292 E111.04622
G1 X115.628 Y50.931 E111.07526
G1 X116.307 Y51.483 E111.10437
G1 X117.055 Y51.936 E111.13345
G1 X117.855 Y52.285 E111.16248
G1 X118.695 Y52.521 E111.1915
G1 X119.563 Y52.639 E111.22064
G1 X120.436 Y52.639 E111.24967
G1 X121.304 Y52.521 E111.27881
G1 X122.144 Y52.285 E111.30783
G1 X122.944 Y51.936 E111.33686
G1 X123.692 Y51.483 E111.36594
G1 X124.371 Y50.931 E111.39505
G1 X124.966 Y50.292 E111.42409
G1 X125.469 Y49.579 E111.45311
G1 X125.874 Y48.803 E111.48223
G1 X126.165 Y47.977 E111.51135
G1 X126.343 Y47.123 E111.54037
G1 X126.402 Y46.267 E111.56891
G1 X126.345 Y45.398 E111.59787
G1 X126.169 Y44.542 E111.62694
G1 X125.88 Y43.716 E111.65604
G1 X125.48 Y42.941 E111.68505
G1 X124.977 Y42.223 E111.71421
G1 X124.357 Y41.558 E111.74445
G1 X123.676 Y41.011 E111.7735
G1 X122.931 Y40.56 E111.80247
G1 X122.127 Y40.212 E111.8316
G1 X121.283 Y39.978 E111.86074
G1 X120.418 Y39.862 E111.88976
G1 X119.543 Y39.864 E111.91887
G1 X118.682 Y39.987 E111.94779
G1 X117.839 Y40.221 E111.97689
G1 X117.036 Y40.575 E112.00608
G1 X116.293 Y41.03 E112.03506
G1 X115.628 Y41.57 E112.06355
G0 F1800 X117.045 Y43.08
G0 X123.748 Y44.071
G0 X123.828 Y44.083
G0 X134.378 Y45.644
G0 X134.457 Y45.656
G0 X134.456 Y45.657
G0 X132.406 Y45.381
G1 F1200 X132.347 Y46.25 E112.09252
G1 X132.406 Y47.12 E112.12152
G1 X132.584 Y47.977 E112.15063
G1 X132.875 Y48.803 E112.17976
G1 X133.28 Y49.579 E112.20888
G1 X133.783 Y50.292 E112.2379
G1 X134.378 Y50.931 E112.26694
G1 X135.057 Y51.483 E112.29604
G1 X135.805 Y51.936 E112.32513
G1 X136.605 Y52.285 E112.35416
G1 X137.445 Y52.521 E112.38318
G1 X138.313 Y52.639 E112.41231
G1 X139.186 Y52.639 E112.44135
G1 X140.054 Y52.521 E112.47048
G1 X140.894 Y52.285 E112.4995
G1 X141.694 Y51.936 E112.52853
G1 X142.442 Y51.483 E112.55762
G1 X143.121 Y50.931 E112.58672
G1 X143.716 Y50.292 E112.61576
G1 X144.219 Y49.579 E112.64479
G1 X144.624 Y48.803 E112.6739
G1 X144.915 Y47.977 E112.70303
G1 X145.093 Y47.123 E112.73204
G1 X145.153 Y46.25 E112.76115
G1 X145.093 Y45.378 E112.79022
G1 X144.915 Y44.524 E112.81923
G1 X144.624 Y43.698 E112.84836
G1 X144.219 Y42.922 E112.87747
G1 X143.716 Y42.209 E112.9065
G1 X143.121 Y41.57 E112.93554
G1 X142.442 Y41.018 E112.96464
G1 X141.694 Y40.565 E112.99373
G1 X140.894 Y40.216 E113.02276
G1 X140.054 Y39.98 E113.05178
G1 X139.186 Y39.862 E113.08091
G1 X138.313 Y39.862 E113.10995
G1 X137.445 Y39.98 E113.13908
G1 X136.605 Y40.216 E113.1681
G1 X135.805 Y40.565 E113.19713
G1 X135.057 Y41.018 E113.22622
G1 X134.378 Y41.57 E113.25532
G1 X133.783 Y42.209 E113.28436
G1 X133.28 Y42.922 E113.31339
G1 X132.875 Y43.698 E113.3425
G1 X132.584 Y44.524 E113.37163
G1 X132.406 Y45.381 E113.40074
G0 F1800 X134.456 Y45.657
G0 X143.06 Y45.928
G0 X143.14 Y45.931
G0 X153.087 Y46.246
G0 X153.167 Y46.249
G0 X153.167 Y46.25
G0 X151.097 Y46.25
G1 F1200 X151.156 Y47.12 E113.42974
G1 X151.334 Y47.977 E113.45885
G1 X151.625 Y48.803 E113.48798
G1 X152.03 Y49.579 E113.5171
G1 X152.533 Y50.292 E113.54612
G1 X153.128 Y50.931 E113.57516
G1 X153.807 Y51.483 E113.60426
G1 X154.555 Y51.936 E113.63335
G1 X155.355 Y52.285 E113.66238
G1 X156.195 Y52.521 E113.6914
G1 X157.063 Y52.639 E113.72053
G1 X157.936 Y52.639 E113.74957
G1 X158.804 Y52.521 E113.77871
