;FLAVOR:RepRap
;TIME:6086
;Filament used: 5.00421m
;Layer height: 0.2
;Generated with Cura_SteamEngine 2.4.0
M190 S50
M104 S195
M109 S195
G21 ;metric values
G90 ;absolute positioning
M82 ;set extruder to absolute mode
M107 ;start with the fan off
G28 X0 Y0 ;move X/Y to min endstops
G28 Z0 ;move Z to min endstops
G1 Z15.0 F9000 ;move the platform down 15mm
G92 E0 ;zero the extruded length
G1 F200 E3 ;extrude 3mm of feed stock
G92 E0 ;zero the extruded length again
G1 F9000
M117 Printing...
;LAYER_COUNT:28
;LAYER:0
M107
G0 F1500 X60.886 Y76.206 Z0.2
;TYPE:SKIRT
G1 F900 X79.212 Y63.706 E0.73781
G1 X79.509 Y63.552 E0.74894
G1 X79.833 Y63.473 E0.76003
G1 X80.001 Y63.463 E0.76563
G1 X139.999 Y63.463 E2.76117
G1 X140.331 Y63.503 E2.7723
G1 X140.643 Y63.62 E2.78338
G1 X140.788 Y63.706 E2.78899
G1 X159.113 Y76.206 E3.52677
G1 X159.364 Y76.426 E3.53787
G1 X159.557 Y76.699 E3.54899
G1 X159.679 Y77.01 E3.5601
G1 X159.724 Y77.363 E3.57194
G1 X159.724 Y152.638 E6.0756
G1 X159.684 Y152.97 E6.08672
G1 X159.567 Y153.282 E6.0978
G1 X159.314 Y153.628 E6.11206
G1 X156.815 Y156.127 E6.2296
G1 X156.552 Y156.333 E6.24072
G1 X156.248 Y156.472 E6.25183
G1 X155.825 Y156.537 E6.26607
G1 X64.174 Y156.537 E9.31439
G1 X63.842 Y156.497 E9.32551
G1 X63.53 Y156.38 E9.3366
G1 X63.184 Y156.127 E9.35085
G1 X60.685 Y153.628 E9.4684
G1 X60.479 Y153.365 E9.47951
G1 X60.34 Y153.061 E9.49063
G1 X60.275 Y152.638 E9.50486
G1 X60.275 Y77.363 E12.00852
G1 X60.315 Y77.031 E12.01964
G1 X60.432 Y76.719 E12.03072
G1 X60.62 Y76.442 E12.04186
G1 X60.886 Y76.206 E12.05369
G0 F1500 X61.112 Y76.537
G1 F900 X79.438 Y64.037 E12.7915
G1 X79.691 Y63.912 E12.80089
G1 X80.001 Y63.863 E12.81132
G1 X139.999 Y63.863 E14.80687
G1 X140.278 Y63.903 E14.81624
G1 X140.563 Y64.037 E14.82672
G1 X158.888 Y76.537 E15.5645
G1 X159.096 Y76.727 E15.57387
G1 X159.243 Y76.968 E15.58326
G1 X159.324 Y77.363 E15.59667
G1 X159.324 Y152.638 E18.10033
G1 X159.284 Y152.917 E18.1097
G1 X159.168 Y153.174 E18.11908
G1 X159.031 Y153.345 E18.12637
G1 X156.532 Y155.844 E18.24392
G1 X156.306 Y156.013 E18.2533
G1 X156.042 Y156.113 E18.26269
G1 X155.825 Y156.137 E18.26995
G1 X64.174 Y156.137 E21.31828
G1 X63.895 Y156.097 E21.32765
G1 X63.638 Y155.981 E21.33703
G1 X63.467 Y155.844 E21.34432
G1 X60.968 Y153.345 E21.46186
G1 X60.799 Y153.119 E21.47125
G1 X60.699 Y152.855 E21.48064
G1 X60.675 Y152.638 E21.4879
G1 X60.675 Y77.363 E23.99156
G1 X60.715 Y77.084 E24.00093
G1 X60.831 Y76.827 E24.01031
G1 X61.112 Y76.537 E24.02374
G0 F1500 X61.337 Y76.867
G1 F900 X79.663 Y64.367 E24.76155
G1 X79.862 Y64.279 E24.76879
G1 X80.001 Y64.263 E24.77345
G1 X139.999 Y64.263 E26.76899
G1 X140.214 Y64.303 E26.77626
G1 X140.337 Y64.367 E26.78087
G1 X158.662 Y76.867 E27.51866
G1 X158.817 Y77.021 E27.52593
G1 X158.907 Y77.22 E27.53319
G1 X158.924 Y77.363 E27.53798
G1 X158.924 Y152.638 E30.04164
G1 X158.884 Y152.853 E30.04891
G1 X158.748 Y153.062 E30.0572
G1 X156.249 Y155.561 E30.17475
G1 X156.07 Y155.685 E30.18199
G1 X155.825 Y155.737 E30.19032
G1 X64.174 Y155.737 E33.23865
G1 X63.959 Y155.697 E33.24592
G1 X63.75 Y155.561 E33.25421
G1 X61.251 Y153.062 E33.37176
G1 X61.127 Y152.883 E33.379
G1 X61.075 Y152.638 E33.38733
G1 X61.075 Y77.363 E35.89099
G1 X61.115 Y77.148 E35.89826
G1 X61.228 Y76.962 E35.9055
G1 X61.337 Y76.867 E35.91031
G0 F1500 X61.562 Y77.198
G1 F900 X79.888 Y64.698 E36.64812
G1 X80.001 Y64.663 E36.65206
G1 X139.999 Y64.663 E38.6476
G1 X140.112 Y64.698 E38.65154
G1 X158.437 Y77.198 E39.38932
G1 X158.513 Y77.297 E39.39347
G1 X158.524 Y77.363 E39.3957
G1 X158.524 Y152.638 E41.89936
G1 X158.465 Y152.779 E41.90444
G1 X155.966 Y155.278 E42.02198
G1 X155.825 Y155.337 E42.02707
G1 X64.174 Y155.337 E45.07539
G1 X64.033 Y155.278 E45.08048
G1 X61.534 Y152.779 E45.19802
G1 X61.475 Y152.638 E45.20311
G1 X61.475 Y77.363 E47.70676
G1 X61.514 Y77.244 E47.71093
G1 X61.562 Y77.198 E47.71314
G0 F1500 X63.075 Y78.102
;TYPE:WALL-INNER
G1 F900 X80.428 Y66.263 E48.41183
G1 X139.572 Y66.263 E50.37897
G1 X156.924 Y78.102 E51.07763
G1 X156.924 Y152.057 E53.53738
G1 X155.244 Y153.737 E53.61641
G1 X64.755 Y153.737 E56.62608
G1 X63.075 Y152.057 E56.70511
G1 X63.075 Y78.102 E59.16486
G0 F1500 X75.586 Y77.363
G1 F900 X75.738 Y78.503 E59.20311
G1 X76.178 Y79.57 E59.2415
G1 X76.881 Y80.482 E59.2798
G1 X77.793 Y81.183 E59.31806
G1 X78.86 Y81.626 E59.35648
G1 X79.909 Y81.763 E59.39167
G1 X140.091 Y81.763 E61.39333
G1 X141.14 Y81.626 E61.42852
G1 X142.207 Y81.183 E61.46694
G1 X143.119 Y80.482 E61.5052
G1 X143.822 Y79.57 E61.5435
G1 X144.262 Y78.503 E61.58189
G1 X144.414 Y77.363 E61.62014
G1 X144.262 Y76.223 E61.65839
G1 X143.822 Y75.156 E61.69678
G1 X143.119 Y74.244 E61.73508
G1 X142.207 Y73.543 E61.77334
G1 X141.14 Y73.1 E61.81176
G1 X140.091 Y72.963 E61.84695
G1 X79.909 Y72.963 E63.84861
G1 X78.86 Y73.1 E63.88379
G1 X77.793 Y73.543 E63.92222
G1 X76.881 Y74.244 E63.96048
G1 X76.178 Y75.156 E63.99878
G1 X75.738 Y76.223 E64.03717
G1 X75.586 Y77.363 E64.07542
G0 F1500 X70.275 Y103.738
G1 F900 X70.275 Y140.987 E65.31432
G1 X149.724 Y140.987 E67.95681
G1 X149.724 Y103.738 E69.19572
G1 X70.275 Y103.738 E71.8382
G0 F1500 X70.675 Y104.138
G1 F900 X70.675 Y140.587 E73.0505
G1 X149.324 Y140.587 E75.66638
G1 X149.324 Y104.138 E76.87867
G1 X70.675 Y104.138 E79.49455
G0 F1500 X78.964 Y81.236
G1 F900 X79.935 Y81.363 E79.52712
G1 X140.065 Y81.363 E81.52705
G1 X141.036 Y81.236 E81.55962
G1 X142.005 Y80.834 E81.59452
G1 X142.834 Y80.197 E81.62929
G1 X143.473 Y79.368 E81.6641
G1 X143.872 Y78.399 E81.69896
G1 X144.01 Y77.363 E81.73372
G1 X143.872 Y76.327 E81.76848
G1 X143.473 Y75.358 E81.80333
G1 X142.834 Y74.529 E81.83815
G1 X142.005 Y73.892 E81.87292
G1 X141.036 Y73.49 E81.90781
G1 X140.065 Y73.363 E81.94038
G1 X79.935 Y73.363 E83.94031
G1 X78.964 Y73.49 E83.97289
G1 X77.995 Y73.892 E84.00778
G1 X77.166 Y74.529 E84.04255
G1 X76.527 Y75.358 E84.07736
G1 X76.128 Y76.327 E84.11222
G1 X75.99 Y77.363 E84.14698
G1 X76.128 Y78.399 E84.18174
G1 X76.527 Y79.368 E84.2166
G1 X77.166 Y80.197 E84.25141
G1 X77.995 Y80.834 E84.28618
G1 X78.964 Y81.236 E84.32107
G0 F1500 X80.306 Y65.863
G1 F900 X139.694 Y65.863 E86.29633
G1 X157.324 Y77.891 E87.00617
G1 X157.324 Y152.223 E89.47846
G1 X155.41 Y154.137 E89.56849
G1 X64.589 Y154.137 E92.58921
G1 X62.675 Y152.223 E92.67924
G1 X62.675 Y77.891 E95.15153
G1 X80.306 Y65.863 E95.8614
G0 F1500 X80.184 Y65.463
G1 F900 X139.816 Y65.463 E97.84477
G1 X157.724 Y77.68 E98.5658
G1 X157.724 Y152.389 E101.05063
G1 X155.576 Y154.537 E101.15166
G1 X64.423 Y154.537 E104.18343
G1 X62.275 Y152.389 E104.28446
G1 X62.275 Y77.68 E106.76929
G1 X80.184 Y65.463 E107.49035
G0 F1500 X79.961 Y73.763
G1 F900 X79.068 Y73.88 E107.5203
G1 X78.197 Y74.241 E107.55166
G1 X77.451 Y74.814 E107.58295
G1 X76.877 Y75.56 E107.61425
G1 X76.518 Y76.431 E107.64559
G1 X76.394 Y77.363 E107.67686
G1 X76.518 Y78.295 E107.70813
G1 X76.877 Y79.166 E107.73946
G1 X77.451 Y79.912 E107.77077
G1 X78.197 Y80.485 E107.80206
G1 X79.068 Y80.846 E107.83342
G1 X79.961 Y80.963 E107.86337
G1 X140.039 Y80.963 E109.86157
G1 X140.932 Y80.846 E109.89153
G1 X141.803 Y80.485 E109.92289
G1 X142.549 Y79.912 E109.95418
G1 X143.123 Y79.166 E109.98548
G1 X143.482 Y78.295 E110.01682
G1 X143.606 Y77.363 E110.04809
G1 X143.482 Y76.431 E110.07936
G1 X143.123 Y75.56 E110.11069
G1 X142.549 Y74.814 E110.142
G1 X141.803 Y74.241 E110.17329
G1 X140.932 Y73.88 E110.20465
G1 X140.039 Y73.763 E110.2346
G1 X79.961 Y73.763 E112.2328
G0 F1500 X71.075 Y104.538
G1 F900 X71.075 Y140.187 E113.41849
G1 X148.924 Y140.187 E116.00776
G1 X148.924 Y104.538 E117.19345
G1 X71.075 Y104.538 E119.78272
G0 F1500 X71.475 Y104.938
;TYPE:WALL-OUTER
G1 F900 X71.475 Y139.787 E120.9418
G1 X148.524 Y139.787 E123.50446
G1 X148.524 Y104.938 E124.66355
G1 X71.475 Y104.938 E127.22621
G0 F1500 X71.475 Y105.138
G0 X79.172 Y80.456
G1 F900 X79.987 Y80.563 E127.25355
G1 X140.013 Y80.563 E129.25002
G1 X140.828 Y80.456 E129.27736
G1 X141.601 Y80.136 E129.30518
G1 X142.264 Y79.627 E129.33298
G1 X142.773 Y78.964 E129.36079
G1 X143.092 Y78.191 E129.3886
G1 X143.202 Y77.363 E129.41638
G1 X143.092 Y76.535 E129.44416
G1 X142.773 Y75.762 E129.47197
G1 X142.264 Y75.099 E129.49978
G1 X141.601 Y74.59 E129.52758
G1 X140.828 Y74.27 E129.5554
G1 X140.013 Y74.163 E129.58274
G1 X79.987 Y74.163 E131.57921
G1 X79.172 Y74.27 E131.60655
G1 X78.399 Y74.59 E131.63438
G1 X77.736 Y75.099 E131.66218
G1 X77.227 Y75.762 E131.68998
G1 X76.908 Y76.535 E131.71779
G1 X76.798 Y77.363 E131.74558
G1 X76.908 Y78.191 E131.77336
G1 X77.227 Y78.964 E131.80117
G1 X77.736 Y79.627 E131.82897
G1 X78.399 Y80.136 E131.85677
G1 X79.172 Y80.456 E131.8846
G0 F1500 X79.37 Y80.482
G0 X80.062 Y65.063
G1 F900 X139.938 Y65.063 E133.87608
G1 X158.124 Y77.469 E134.60829
G1 X158.124 Y152.555 E137.10566
G1 X155.742 Y154.937 E137.2177
G1 X64.257 Y154.937 E140.2605
G1 X61.875 Y152.555 E140.37255
G1 X61.875 Y77.469 E142.86992
G1 X80.062 Y65.063 E143.60215
G0 F1500 X80.262 Y65.063
G0 X80.585 Y66.443
;TYPE:SKIN
G1 F900 X86.924 Y72.782 E143.90032
G0 X86.994 Y72.852
G0 F1500 X87.49 Y72.782
G1 F900 X81.151 Y66.443 E144.19848
G0 X81.081 Y66.373
G0 F1500 X81.716 Y66.443
G1 F900 X88.056 Y72.782 E144.49667
G0 X88.126 Y72.852
G0 F1500 X88.621 Y72.782
G1 F900 X82.282 Y66.443 E144.79484
G0 X82.212 Y66.373
G0 F1500 X82.848 Y66.443
G1 F900 X89.187 Y72.782 E145.09301
G0 X89.257 Y72.852
G0 F1500 X89.753 Y72.782
G1 F900 X83.413 Y66.443 E145.3912
G0 X83.343 Y66.373
G0 F1500 X83.979 Y66.443
G1 F900 X90.318 Y72.782 E145.68937
G0 X90.388 Y72.852
G0 F1500 X90.884 Y72.782
G1 F900 X84.545 Y66.443 E145.98753
G0 X84.475 Y66.373
G0 F1500 X85.11 Y66.443
G1 F900 X91.45 Y72.782 E146.28572
G0 X91.52 Y72.852
G0 F1500 X92.015 Y72.782
G1 F900 X85.676 Y66.443 E146.58389
G0 X85.606 Y66.373
G0 F1500 X86.242 Y66.443
G1 F900 X92.581 Y72.782 E146.88206
G0 X92.651 Y72.852
G0 F1500 X93.147 Y72.782
G1 F900 X86.807 Y66.443 E147.18025
G0 X86.737 Y66.373
G0 F1500 X87.373 Y66.443
G1 F900 X93.712 Y72.782 E147.47842
G0 X93.782 Y72.852
G0 F1500 X94.278 Y72.782
G1 F900 X87.939 Y66.443 E147.77658
G0 X87.869 Y66.373
G0 F1500 X88.505 Y66.443
G1 F900 X94.844 Y72.782 E148.07475
G0 X94.914 Y72.852
G0 F1500 X95.409 Y72.782
G1 F900 X89.07 Y66.443 E148.37292
G0 X89 Y66.373
G0 F1500 X89.636 Y66.443
G1 F900 X95.975 Y72.782 E148.67108
G0 X96.045 Y72.852
G0 F1500 X96.541 Y72.782
G1 F900 X90.202 Y66.443 E148.96925
G0 X90.132 Y66.373
G0 F1500 X90.767 Y66.443
G1 F900 X97.106 Y72.782 E149.26742
G0 X97.176 Y72.852
G0 F1500 X97.672 Y72.782
G1 F900 X91.333 Y66.443 E149.56559
G0 X91.263 Y66.373
G0 F1500 X91.899 Y66.443
G1 F900 X98.238 Y72.782 E149.86375
G0 X98.308 Y72.852
G0 F1500 X98.804 Y72.782
G1 F900 X92.464 Y66.443 E150.16194
G0 X92.394 Y66.373
G0 F1500 X93.03 Y66.443
G1 F900 X99.369 Y72.782 E150.46011
G0 X99.439 Y72.852
G0 F1500 X99.935 Y72.782
G1 F900 X93.596 Y66.443 E150.75828
G0 X93.526 Y66.373
G0 F1500 X94.161 Y66.443
G1 F900 X100.501 Y72.782 E151.05647
G0 X100.571 Y72.852
G0 F1500 X101.066 Y72.782
G1 F900 X94.727 Y66.443 E151.35464
G0 X94.657 Y66.373
G0 F1500 X95.293 Y66.443
G1 F900 X101.632 Y72.782 E151.6528
G0 X101.702 Y72.852
G0 F1500 X102.198 Y72.782
G1 F900 X95.858 Y66.443 E151.95099
G0 X95.788 Y66.373
G0 F1500 X96.424 Y66.443
G1 F900 X102.763 Y72.782 E152.24916
G0 X102.833 Y72.852
G0 F1500 X103.329 Y72.782
G1 F900 X96.99 Y66.443 E152.54733
G0 X96.92 Y66.373
G0 F1500 X97.555 Y66.443
G1 F900 X103.895 Y72.782 E152.84552
G0 X103.965 Y72.852
G0 F1500 X104.46 Y72.782
G1 F900 X98.121 Y66.443 E153.14369
G0 X98.051 Y66.373
G0 F1500 X98.687 Y66.443
G1 F900 X105.026 Y72.782 E153.44185
G0 X105.096 Y72.852
G0 F1500 X105.592 Y72.782
G1 F900 X99.253 Y66.443 E153.74002
G0 X99.183 Y66.373
G0 F1500 X99.818 Y66.443
G1 F900 X106.157 Y72.782 E154.03819
G0 X106.227 Y72.852
G0 F1500 X106.723 Y72.782
G1 F900 X100.384 Y66.443 E154.33635
G0 X100.314 Y66.373
G0 F1500 X100.95 Y66.443
G1 F900 X107.289 Y72.782 E154.63452
G0 X107.359 Y72.852
G0 F1500 X107.854 Y72.782
G1 F900 X101.515 Y66.443 E154.93269
G0 X101.445 Y66.373
G0 F1500 X102.081 Y66.443
G1 F900 X108.42 Y72.782 E155.23086
G0 X108.49 Y72.852
G0 F1500 X108.986 Y72.782
G1 F900 X102.647 Y66.443 E155.52902
G0 X102.577 Y66.373
G0 F1500 X103.212 Y66.443
G1 F900 X109.552 Y72.782 E155.82721
G0 X109.622 Y72.852
G0 F1500 X110.117 Y72.782
G1 F900 X103.778 Y66.443 E156.12538
G0 X103.708 Y66.373
G0 F1500 X104.344 Y66.443
G1 F900 X110.683 Y72.782 E156.42355
G0 X110.753 Y72.852
G0 F1500 X111.249 Y72.782
G1 F900 X104.909 Y66.443 E156.72174
G0 X104.839 Y66.373
G0 F1500 X105.475 Y66.443
G1 F900 X111.814 Y72.782 E157.01991
G0 X111.884 Y72.852
G0 F1500 X112.38 Y72.782
G1 F900 X106.041 Y66.443 E157.31807
G0 X105.971 Y66.373
G0 F1500 X106.606 Y66.443
G1 F900 X112.946 Y72.782 E157.61626
G0 X113.016 Y72.852
G0 F1500 X113.511 Y72.782
G1 F900 X107.172 Y66.443 E157.91443
G0 X107.102 Y66.373
G0 F1500 X107.738 Y66.443
G1 F900 X114.077 Y72.782 E158.2126
G0 X114.147 Y72.852
G0 F1500 X114.643 Y72.782
G1 F900 X108.304 Y66.443 E158.51076
G0 X108.234 Y66.373
G0 F1500 X108.869 Y66.443
G1 F900 X115.208 Y72.782 E158.80893
G0 X115.278 Y72.852
G0 F1500 X115.774 Y72.782
G1 F900 X109.435 Y66.443 E159.1071
G0 X109.365 Y66.373
G0 F1500 X110.001 Y66.443
G1 F900 X116.34 Y72.782 E159.40527
G0 X116.41 Y72.852
G0 F1500 X116.905 Y72.782
G1 F900 X110.566 Y66.443 E159.70343
G0 X110.496 Y66.373
G0 F1500 X111.132 Y66.443
G1 F900 X117.471 Y72.782 E160.0016
G0 X117.541 Y72.852
G0 F1500 X118.037 Y72.782
G1 F900 X111.698 Y66.443 E160.29977
G0 X111.628 Y66.373
G0 F1500 X112.263 Y66.443
G1 F900 X118.603 Y72.782 E160.59796
G0 X118.673 Y72.852
G0 F1500 X119.168 Y72.782
G1 F900 X112.829 Y66.443 E160.89612
G0 X112.759 Y66.373
G0 F1500 X113.395 Y66.443
G1 F900 X119.734 Y72.782 E161.19429
G0 X119.804 Y72.852
G0 F1500 X120.3 Y72.782
G1 F900 X113.96 Y66.443 E161.49248
G0 X113.89 Y66.373
G0 F1500 X114.526 Y66.443
G1 F900 X120.865 Y72.782 E161.79065
G0 X120.935 Y72.852
G0 F1500 X121.431 Y72.782
G1 F900 X115.092 Y66.443 E162.08882
G0 X115.022 Y66.373
G0 F1500 X115.657 Y66.443
G1 F900 X121.997 Y72.782 E162.38701
G0 X122.067 Y72.852
G0 F1500 X122.562 Y72.782
G1 F900 X116.223 Y66.443 E162.68517
G0 X116.153 Y66.373
G0 F1500 X116.789 Y66.443
G1 F900 X123.128 Y72.782 E162.98334
G0 X123.198 Y72.852
G0 F1500 X123.694 Y72.782
G1 F900 X117.354 Y66.443 E163.28153
G0 X117.284 Y66.373
G0 F1500 X117.92 Y66.443
G1 F900 X124.259 Y72.782 E163.5797
G0 X124.329 Y72.852
G0 F1500 X124.825 Y72.782
G1 F900 X118.486 Y66.443 E163.87787
G0 X118.416 Y66.373
G0 F1500 X119.052 Y66.443
G1 F900 X125.391 Y72.782 E164.17603
G0 X125.461 Y72.852
G0 F1500 X125.956 Y72.782
G1 F900 X119.617 Y66.443 E164.4742
G0 X119.547 Y66.373
G0 F1500 X120.183 Y66.443
G1 F900 X126.522 Y72.782 E164.77237
G0 X126.592 Y72.852
G0 F1500 X127.088 Y72.782
G1 F900 X120.749 Y66.443 E165.07054
G0 X120.679 Y66.373
G0 F1500 X121.314 Y66.443
G1 F900 X127.653 Y72.782 E165.3687
G0 X127.723 Y72.852
G0 F1500 X128.219 Y72.782
G1 F900 X121.88 Y66.443 E165.66687
G0 X121.81 Y66.373
G0 F1500 X122.446 Y66.443
G1 F900 X128.785 Y72.782 E165.96504
G0 X128.855 Y72.852
G0 F1500 X129.351 Y72.782
G1 F900 X123.011 Y66.443 E166.26323
G0 X122.941 Y66.373
G0 F1500 X123.577 Y66.443
G1 F900 X129.916 Y72.782 E166.56139
G0 X129.986 Y72.852
G0 F1500 X130.482 Y72.782
G1 F900 X124.143 Y66.443 E166.85956
G0 X124.073 Y66.373
G0 F1500 X124.708 Y66.443
G1 F900 X131.048 Y72.782 E167.15775
G0 X131.118 Y72.852
G0 F1500 X131.613 Y72.782
G1 F900 X125.274 Y66.443 E167.45592
G0 X125.204 Y66.373
G0 F1500 X125.84 Y66.443
G1 F900 X132.179 Y72.782 E167.75409
G0 X132.249 Y72.852
G0 F1500 X132.745 Y72.782
G1 F900 X126.405 Y66.443 E168.05228
G0 X126.335 Y66.373
G0 F1500 X126.971 Y66.443
G1 F900 X133.31 Y72.782 E168.35044
G0 X133.38 Y72.852
G0 F1500 X133.876 Y72.782
G1 F900 X127.537 Y66.443 E168.64861
G0 X127.467 Y66.373
G0 F1500 X128.103 Y66.443
G1 F900 X134.442 Y72.782 E168.94678
G0 X134.512 Y72.852
G0 F1500 X135.007 Y72.782
G1 F900 X128.668 Y66.443 E169.24495
G0 X128.598 Y66.373
G0 F1500 X129.234 Y66.443
G1 F900 X135.573 Y72.782 E169.54311
G0 X135.643 Y72.852
G0 F1500 X136.139 Y72.782
G1 F900 X129.8 Y66.443 E169.84128
G0 X129.73 Y66.373
G0 F1500 X130.365 Y66.443
